X: 36735
T: Sheep Under The Snow, The
R: waltz
M: 3/4
K: Bdorian
Bc|d2 F2 FE|F2 A2 BA|F2 f2 fe|f4 fg|
a2 g2 af|fe c2 Ac|BA FE FA|B4 Bc|
de f2 df|ec A2 Bc|d2 e2 fg|a4 Bc|
de f2 df|ec A2 dc|BA FE FA|B4z2|

